X:479
T:Miss Brooke
C:J. Scott Skinner
S:Colin Hume's website,  colinhume.com  - chords can also be printed below the stave.
N:For the dance "For You Shall See" by Dick Hosking
Q:1/2=112
M:2/2
L:1/8
K:A
P:A
|: zE2 | "A"A2 A2 Aaag | "D"gffe "A"e4 | "D"a2 ag "A/C#"agfe | "Bm"dcBA "E7"GEFG |\
"A"A2 A2 Aaag | "D"gffe "A"e4 | "D"f2 fe "Bm"dcBA | "E7"GABG "A"A :|
P:B
|: GAB | "F#m"c2 cA F2 F2 | "F#m"fgaf c4 | "D"f2 fe "Bm"d2 dc | "E"B2 BA GA B2 |\
"F#m"c2 cA F2 F2 | "F#m"fgaf c4 | "D"f2 fe "Bm"dcBA |1 "E7"cBAG "A"A :|2 "E7"GABG "A"A |]

